data/styles/clear/style-night/symbols/stadium-m.svg

<svg height="24" viewBox="0 0 24 24" width="24"><g fill="none" fill-rule="evenodd"><circle cx="12" cy="12" fill="#fff" opacity=".4" r="12"/><circle cx="12" cy="12" fill="#4d361f" r="11"/><path d="m13.3846154 7.66601657v.87791301c2.3931951.1684857 4.2326645.76410118 4.5625161 1.50195312h.0528685v3.8745101h-.055645c-.3459189.9365986-2.2682905 2.6364791-4.744355 3.0796072v-1.8027109c0-.2833649-.2278773-.5019942-.5089783-.5019942h-1.3820434c-.2874939 0-.5089783.2247504-.5089783.5019942v1.8027109c-2.47606453-.4431281-4.39843613-2.1430086-4.74435498-3.0796072h-.05564502v-3.8745101h.05286853c.32985161-.73785194 2.16932096-1.33346742 4.56251607-1.50195312v-.87656675c-.5427422.05569537-.92307691.12087262-.92307691.12087262v-1.58954262s1.15384611-.19869283 2.30769231-.19869283 2.3076923.19869283 2.3076923.19869283v1.58954262s-.3793604-.06623328-.9230769-.12221888zm-.6923077-.05594304c-.2204748-.01263865-.4506238-.02053091-.6816031-.02053091-.2376501 0-.4753213.00835471-.7030123.02163774v.89667362c.2271525-.00777807.4581638-.01177534.6923077-.01177534s.4651552.00399727.6923077.01177534zm-.6923077 4.37306427c2.8718807 0 5.2-.6071371 5.2-1.3560786 0-.74894148-2.3281193-1.35607853-5.2-1.35607853s-5.2.60713705-5.2 1.35607853c0 .7489415 2.3281193 1.3560786 5.2 1.3560786zm-2-1.5498041h4l1.0321777.9160341s-1.5487028.2072049-3.0321777.2072049-2.96279297-.2072049-2.96279297-.2072049z" fill="#fff" opacity=".6"/></g></svg>

<svg width="24" height="24" viewBox="0 0 24 24">
  <g fill="none" fill-rule="evenodd">
    <circle cx="12" cy="12" r="12" fill="#FFF" opacity=".4"/>
    <circle cx="12" cy="12" r="11" fill="#4C351E"/>
    <path fill="#FFF" d="M13.3846154,7.66601657 L13.3846154,8.54392958 C15.7778105,8.71241528 17.6172799,9.30803076 17.9471315,10.0458827 L18,10.0458827 L18,13.9203928 L17.944355,13.9203928 C17.5984361,14.8569914 15.6760645,16.5568719 13.2,17 L13.2,15.1972891 C13.2,14.9139242 12.9721227,14.6952949 12.6910217,14.6952949 L11.3089783,14.6952949 C11.0214844,14.6952949 10.8,14.9200453 10.8,15.1972891 L10.8,17 C8.32393547,16.5568719 6.40156387,14.8569914 6.05564502,13.9203928 L6,13.9203928 L6,10.0458827 L6.05286853,10.0458827 C6.38272014,9.30803076 8.22218949,8.71241528 10.6153846,8.54392958 L10.6153846,7.66736283 C10.0726424,7.7230582 9.69230769,7.78823545 9.69230769,7.78823545 L9.69230769,6.19869283 C9.69230769,6.19869283 10.8461538,6 12,6 C13.1538462,6 14.3076923,6.19869283 14.3076923,6.19869283 L14.3076923,7.78823545 C14.3076923,7.78823545 13.9283319,7.72200217 13.3846154,7.66601657 Z M12.6923077,7.61007353 C12.4718329,7.59743488 12.2416839,7.58954262 12.0107046,7.58954262 C11.7730545,7.58954262 11.5353833,7.59789733 11.3076923,7.61118036 L11.3076923,8.50785398 C11.5348448,8.50007591 11.7658561,8.49607864 12,8.49607864 C12.2341439,8.49607864 12.4651552,8.50007591 12.6923077,8.50785398 L12.6923077,7.61007353 Z M12,11.9831378 C14.8718807,11.9831378 17.2,11.3760007 17.2,10.6270592 C17.2,9.87811772 14.8718807,9.27098067 12,9.27098067 C9.1281193,9.27098067 6.8,9.87811772 6.8,10.6270592 C6.8,11.3760007 9.1281193,11.9831378 12,11.9831378 Z M10,10.4333337 L14,10.4333337 L15.0321777,11.3493678 C15.0321777,11.3493678 13.4834749,11.5565727 12,11.5565727 C10.5165251,11.5565727 9.03720703,11.3493678 9.03720703,11.3493678 L10,10.4333337 Z" opacity=".6"/>
  </g>
</svg>
